packages/homepage/src/pages/company/images/kp.svg

<svg fill="none" height="42" viewBox="0 0 434 42" width="434" xmlns="http://www.w3.org/2000/svg"><g fill="#fff"><path d="m80.8282 10.9336h-4.7737l-10.6907 8.9908v-8.9908h-3.836v19.6463h3.836v-6.3632l4.0115-3.1841 8.3389 9.5473h4.9793l-10.5502-12.1047z"/><path d="m94.2868 10.9336h-3.841v19.6463h16.6382v-3.4248h-12.7972z"/><path d="m118.23 22.0354h8.028v-3.3897h-8.028v-4.2873h13.248v-3.4248h-17.084v19.6463h17.882v-3.4248h-14.046z"/><path d="m145.734 10.9336h-3.841v19.6463h3.841z"/><path d="m172.536 24.317h-.035l-11.759-13.3834h-3.389v19.6463h3.836v-13.3884h.035l11.763 13.3884h3.39v-19.6463h-3.841z"/><path d="m191.837 22.0354h8.023v-3.3897h-8.023v-4.2873h13.248v-3.4248h-17.089v19.6463h17.886v-3.4248h-14.045z"/><path d="m234.97 17.0913c0-1.5194-.622-2.9034-1.66-3.9764-1.278-1.3138-3.184-2.1813-6.262-2.1813h-11.554v19.6463h3.841v-7.3009h7.126l4.428 7.2959h4.427l-4.909-7.8525c2.623-.8575 4.563-2.9334 4.563-5.6311zm-7.371 2.798h-8.269v-5.5359h7.712c1.314 0 2.493.1053 3.39 1.1082.416.4513.692 1.038.692 1.6597.005 1.4893-1.584 2.768-3.525 2.768z"/><path d="m266.616 10.9336h-11.653v19.6463h3.841v-7.3009h7.712c2.768 0 4.703-.5867 6.228-2.1111 1.038-1.0379 1.694-2.3517 1.694-4.0466 0-1.5895-.586-3.0086-1.659-4.0817-1.595-1.6246-3.776-2.106-6.163-2.106zm3.219 7.9528c-.762.7271-1.73 1.0029-3.319 1.0029h-7.712v-5.5359h7.817c.968 0 2.352.0351 3.32 1.0731.416.4513.656 1.038.656 1.6948 0 .6619-.28 1.2837-.762 1.7651z"/><path d="m286.478 22.06h8.023v-3.3948h-8.023v-4.2873h13.248v-3.4248h-17.089v19.6464h17.881v-3.4249h-14.04z"/><path d="m329.606 17.1108c0-1.5194-.621-2.9033-1.659-3.9764-1.279-1.3138-3.184-2.1813-6.263-2.1813h-11.553v19.6464h3.841v-7.296h7.13l4.428 7.296h4.427l-4.909-7.8526c2.623-.8624 4.558-2.9384 4.558-5.6361zm-7.366 2.803h-8.268v-5.5359h7.712c1.313 0 2.492.1053 3.389 1.1082.417.4513.692 1.038.692 1.6598.005 1.4893-1.589 2.7679-3.525 2.7679z"/><path d="m358.866 10.9531h-4.774l-10.686 8.9958v-8.9958h-3.841v19.6464h3.841v-6.3633l4.012-3.1841 8.334 9.5474h4.984l-10.55-12.1048z"/><path d="m372.319 10.9531h-3.841v19.6464h3.841z"/><path d="m399.121 24.3415h-.035l-11.759-13.3884h-3.39v19.6464h3.841v-13.3834h.035l11.759 13.3834h3.39v-19.6464h-3.841z"/><path d="m424.012 18.3159c-3.114-.2056-6.122-.2758-6.122-2.1812 0-1.8654 2.041-2.5223 4.498-2.5223 3.876 0 6.604 1.2436 7.747 2.2114l2.352-2.6627c-1.695-1.2435-5.501-2.9033-9.964-2.9033-3.871 0-8.509 1.4191-8.509 6.2229 0 4.879 5.325 5.2249 9.993 5.5709 3.701.2758 5.847.8324 5.847 3.0438 0 1.9706-2.316 2.8381-5.29 2.8381-4.703 0-7.677-2.1462-9.372-3.5301l-2.317 2.6626c2.387 2.0058 6.018 4.2221 11.624 4.2221 5.014 0 9.236-1.8653 9.236-6.7092-.005-5.6362-5.952-6.0173-9.723-6.263z"/><path d="m3.35606.953125c-1.84529 0-3.3445854 1.494285-3.3445854 3.344585v16.71289l20.0575254-20.057475z"/><path d="m.0114746 37.7286c0 1.8453 1.4942854 3.3446 3.3445854 3.3446h16.71294l-20.0575254-20.0576z"/><path d="m20.0691 24.3563v16.7129l20.0575-20.0575h-16.7129c-1.8453 0-3.3446 1.4993-3.3446 3.3446z"/><path d="m36.7869.953125h-16.7129l20.0575 20.057475v-16.71289c-.005-1.84529-1.4993-3.344585-3.3446-3.344585z"/></g></svg>

<svg width="434" height="42" viewBox="0 0 434 42" fill="none" xmlns="http://www.w3.org/2000/svg">
<path d="M80.8282 10.9336H76.0545L65.3638 19.9244V10.9336H61.5278V30.5799H65.3638V24.2167L69.3753 21.0326L77.7142 30.5799H82.6935L72.1433 18.4752L80.8282 10.9336Z" fill="white"/>
<path d="M94.2868 10.9336H90.4458V30.5799H107.084V27.1551H94.2868V10.9336Z" fill="white"/>
<path d="M118.23 22.0354H126.258V18.6457H118.23V14.3584H131.478V10.9336H114.394V30.5799H132.276V27.1551H118.23V22.0354Z" fill="white"/>
<path d="M145.734 10.9336H141.893V30.5799H145.734V10.9336Z" fill="white"/>
<path d="M172.536 24.317H172.501L160.742 10.9336H157.353V30.5799H161.189V17.1915H161.224L172.987 30.5799H176.377V10.9336H172.536V24.317Z" fill="white"/>
<path d="M191.837 22.0354H199.86V18.6457H191.837V14.3584H205.085V10.9336H187.996V30.5799H205.882V27.1551H191.837V22.0354Z" fill="white"/>
<path d="M234.97 17.0913C234.97 15.5719 234.348 14.1879 233.31 13.1149C232.032 11.8011 230.126 10.9336 227.048 10.9336H215.494V30.5799H219.335V23.279H226.461L230.889 30.5749H235.316L230.407 22.7224C233.03 21.8649 234.97 19.789 234.97 17.0913ZM227.599 19.8893H219.33V14.3534H227.042C228.356 14.3534 229.535 14.4587 230.432 15.4616C230.848 15.9129 231.124 16.4996 231.124 17.1213C231.129 18.6106 229.54 19.8893 227.599 19.8893Z" fill="white"/>
<path d="M266.616 10.9336H254.963V30.5799H258.804V23.279H266.516C269.284 23.279 271.219 22.6923 272.744 21.1679C273.782 20.13 274.438 18.8162 274.438 17.1213C274.438 15.5318 273.852 14.1127 272.779 13.0396C271.184 11.415 269.003 10.9336 266.616 10.9336ZM269.835 18.8864C269.073 19.6135 268.105 19.8893 266.516 19.8893H258.804V14.3534H266.621C267.589 14.3534 268.973 14.3885 269.941 15.4265C270.357 15.8778 270.597 16.4645 270.597 17.1213C270.597 17.7832 270.317 18.405 269.835 18.8864Z" fill="white"/>
<path d="M286.478 22.06H294.501V18.6652H286.478V14.3779H299.726V10.9531H282.637V30.5995H300.518V27.1746H286.478V22.06Z" fill="white"/>
<path d="M329.606 17.1108C329.606 15.5914 328.985 14.2075 327.947 13.1344C326.668 11.8206 324.763 10.9531 321.684 10.9531H310.131V30.5995H313.972V23.3035H321.102L325.53 30.5995H329.957L325.048 22.7469C327.671 21.8845 329.606 19.8085 329.606 17.1108ZM322.24 19.9138H313.972V14.3779H321.684C322.997 14.3779 324.176 14.4832 325.073 15.4861C325.49 15.9374 325.765 16.5241 325.765 17.1459C325.77 18.6352 324.176 19.9138 322.24 19.9138Z" fill="white"/>
<path d="M358.866 10.9531H354.092L343.406 19.9489V10.9531H339.565V30.5995H343.406V24.2362L347.418 21.0521L355.752 30.5995H360.736L350.186 18.4947L358.866 10.9531Z" fill="white"/>
<path d="M372.319 10.9531H368.478V30.5995H372.319V10.9531Z" fill="white"/>
<path d="M399.121 24.3415H399.086L387.327 10.9531H383.937V30.5995H387.778V17.2161H387.813L399.572 30.5995H402.962V10.9531H399.121V24.3415Z" fill="white"/>
<path d="M424.012 18.3159C420.898 18.1103 417.89 18.0401 417.89 16.1347C417.89 14.2693 419.931 13.6124 422.388 13.6124C426.264 13.6124 428.992 14.856 430.135 15.8238L432.487 13.1611C430.792 11.9176 426.986 10.2578 422.523 10.2578C418.652 10.2578 414.014 11.6769 414.014 16.4807C414.014 21.3597 419.339 21.7056 424.007 22.0516C427.708 22.3274 429.854 22.884 429.854 25.0954C429.854 27.066 427.538 27.9335 424.564 27.9335C419.861 27.9335 416.887 25.7873 415.192 24.4034L412.875 27.066C415.262 29.0718 418.893 31.2881 424.499 31.2881C429.513 31.2881 433.735 29.4228 433.735 24.5789C433.73 18.9427 427.783 18.5616 424.012 18.3159Z" fill="white"/>
<path d="M3.35606 0.953125C1.51077 0.953125 0.0114746 2.44741 0.0114746 4.29771V21.0106L20.069 0.953125H3.35606Z" fill="white"/>
<path d="M0.0114746 37.7286C0.0114746 39.5739 1.50576 41.0732 3.35606 41.0732H20.069L0.0114746 21.0156V37.7286Z" fill="white"/>
<path d="M20.0691 24.3563V41.0692L40.1266 21.0117H23.4137C21.5684 21.0117 20.0691 22.511 20.0691 24.3563Z" fill="white"/>
<path d="M36.7869 0.953125H20.074L40.1315 21.0106V4.29771C40.1265 2.45242 38.6322 0.953125 36.7869 0.953125Z" fill="white"/>
</svg>
